; G-Code generated by Simplify3D(R) Version 4.1.2
; Oct 20, 2022 at 8:54:33 PM
; Settings Summary
;   processName,Process1
;   applyToModels,0
;   profileName,Ender 3 / PLA / insane (modified)
;   profileVersion,2021-12-30 21:32:33
;   baseProfile,Creality Ender 3 (modified)
;   printMaterial,PLA
;   printQuality,High
;   printExtruders,
;   extruderName,Primary Extruder
;   extruderToolheadNumber,0
;   extruderDiameter,0.4
;   extruderAutoWidth,0
;   extruderWidth,0.4
;   extrusionMultiplier,0.92
;   extruderUseRetract,1
;   extruderRetractionDistance,4.6
;   extruderExtraRestartDistance,0
;   extruderRetractionZLift,0
;   extruderRetractionSpeed,2400
;   extruderUseCoasting,0
;   extruderCoastingDistance,0.2
;   extruderUseWipe,0
;   extruderWipeDistance,5
;   primaryExtruder,0
;   layerHeight,0.2
;   topSolidLayers,5
;   bottomSolidLayers,6
;   perimeterOutlines,1
;   printPerimetersInsideOut,1
;   startPointOption,2
;   startPointOriginX,0
;   startPointOriginY,0
;   sequentialIslands,0
;   spiralVaseMode,1
;   firstLayerHeightPercentage,140
;   firstLayerWidthPercentage,150
;   firstLayerUnderspeed,0.12
;   useRaft,1
;   raftExtruder,0
;   raftTopLayers,2
;   raftBaseLayers,0
;   raftOffset,2.2
;   raftSeparationDistance,0.2
;   raftTopInfill,100
;   aboveRaftSpeedMultiplier,0.4
;   useSkirt,1
;   skirtExtruder,0
;   skirtLayers,1
;   skirtOutlines,2
;   skirtOffset,0
;   usePrimePillar,0
;   primePillarExtruder,999
;   primePillarWidth,12
;   primePillarLocation,7
;   primePillarSpeedMultiplier,1
;   useOozeShield,0
;   oozeShieldExtruder,999
;   oozeShieldOffset,2
;   oozeShieldOutlines,1
;   oozeShieldSidewallShape,1
;   oozeShieldSidewallAngle,30
;   oozeShieldSpeedMultiplier,1
;   infillExtruder,0
;   internalInfillPattern,Grid
;   externalInfillPattern,Rectilinear
;   infillPercentage,0
;   outlineOverlapPercentage,15
;   infillExtrusionWidthPercentage,100
;   minInfillLength,5
;   infillLayerInterval,1
;   internalInfillAngles,45,-45
;   overlapInternalInfillAngles,1
;   externalInfillAngles,45,-45
;   generateSupport,0
;   supportExtruder,0
;   supportInfillPercentage,40
;   supportExtraInflation,0
;   supportBaseLayers,0
;   denseSupportExtruder,0
;   denseSupportLayers,0
;   denseSupportInfillPercentage,70
;   supportLayerInterval,2
;   supportHorizontalPartOffset,0.3
;   supportUpperSeparationLayers,1
;   supportLowerSeparationLayers,1
;   supportType,0
;   supportGridSpacing,2
;   maxOverhangAngle,55
;   supportAngles,0
;   temperatureName,Primary Extruder,Heated Bed
;   temperatureNumber,0,0
;   temperatureSetpointCount,1,1
;   temperatureSetpointLayers,1,1
;   temperatureSetpointTemperatures,210,55
;   temperatureStabilizeAtStartup,1,1
;   temperatureHeatedBed,0,1
;   fanLayers,1,2
;   fanSpeeds,0,100
;   blipFanToFullPower,0
;   adjustSpeedForCooling,1
;   minSpeedLayerTime,15
;   minCoolingSpeedSlowdown,50
;   increaseFanForCooling,0
;   minFanLayerTime,45
;   maxCoolingFanSpeed,100
;   increaseFanForBridging,0
;   bridgingFanSpeed,100
;   use5D,1
;   relativeEdistances,0
;   allowEaxisZeroing,1
;   independentExtruderAxes,0
;   includeM10123,0
;   stickySupport,1
;   applyToolheadOffsets,0
;   gcodeXoffset,0
;   gcodeYoffset,0
;   gcodeZoffset,0
;   overrideMachineDefinition,1
;   machineTypeOverride,0
;   strokeXoverride,220
;   strokeYoverride,220
;   strokeZoverride,250
;   originOffsetXoverride,-5
;   originOffsetYoverride,-5
;   originOffsetZoverride,0
;   homeXdirOverride,-1
;   homeYdirOverride,-1
;   homeZdirOverride,-1
;   flipXoverride,1
;   flipYoverride,-1
;   flipZoverride,1
;   toolheadOffsets,0,0|0,0|0,0|0,0|0,0|0,0
;   overrideFirmwareConfiguration,1
;   firmwareTypeOverride,RepRap (Marlin/Repetier/Sprinter)
;   GPXconfigOverride,r2
;   baudRateOverride,115200
;   overridePrinterModels,1
;   printerModelsOverride
;   startingGcode,;;;;;;;;;;;;;;;;;;;;;;;;;;;;;;;;;;;;;; STARTING SCRIPT ;;;;;;;;;;;;;;;;;;;;;;;;;;;;;;;;;;;;;;;;;;,G28 ; home all axes,G1 X10 Y30 Z0.2 F3000 ; get ready to prime,G92 E0 ; reset extrusion distance,G1 X160 E15 F600 ; prime nozzle,G1 X180 F5000 ; quick wipe,;;;;;;;;;;;;;;;;;;;;;;;;;;;;;;;;;;;;;; STARTING SCRIPT END ;;;;;;;;;;;;;;;;;;;;;;;;;;;;;;;;;;;;;;;;;;,;;;;;;;;;;;;;;;;;;;;;;;;;;;;;;;;;;;;;; START PRINT ;;;;;;;;;;;;;;;;;;;;;;;;;;;;;;;;;;;;;;;;;;
;   layerChangeGcode,
;   retractionGcode,
;   toolChangeGcode,
;   endingGcode,;;;;;;;;;;;;;;;;;;;;;;;;;;;;;;;;;;;;;; END PRINT ;;;;;;;;;;;;;;;;;;;;;;;;;;;;;;;;;;;;;;;;;;,;;;;;;;;;;;;;;;;;;;;;;;;;;;;;;;;;;;;;; ENDING SCRIPT ;;;;;;;;;;;;;;;;;;;;;;;;;;;;;;;;;;;;;;;;;;,G28 X0 ; home X axis,M106 S0 ; turn off cooling fan,M104 S0 ; turn off extruder,M140 S0 ; turn off bed,M84 ; disable motors,;;;;;;;;;;;;;;;;;;;;;;;;;;;;;;;;;;;;;; ENDING SCRIPT END ;;;;;;;;;;;;;;;;;;;;;;;;;;;;;;;;;;;;;;;;;;
;   exportFileFormat,gcode
;   celebration,0
;   celebrationSong,Random Song
;   postProcessing,
;   defaultSpeed,3600
;   outlineUnderspeed,0.5
;   solidInfillUnderspeed,0.8
;   supportUnderspeed,0.8
;   rapidXYspeed,4800
;   rapidZspeed,1002
;   minBridgingArea,50
;   bridgingExtraInflation,0
;   bridgingExtrusionMultiplier,1
;   bridgingSpeedMultiplier,1
;   useFixedBridgingAngle,0
;   fixedBridgingAngle,0
;   applyBridgingToPerimeters,0
;   filamentDiameters,1.75|1.75|1.75|1.75|1.75|1.75
;   filamentPricesPerKg,30|46|46|46|46|46
;   filamentDensities,1.25|1.25|1.25|1.25|1.25|1.25
;   useMinPrintHeight,0
;   minPrintHeight,0
;   useMaxPrintHeight,0
;   maxPrintHeight,1.08
;   useDiaphragm,0
;   diaphragmLayerInterval,20
;   robustSlicing,1
;   mergeAllIntoSolid,0
;   onlyRetractWhenCrossingOutline,1
;   retractBetweenLayers,1
;   useRetractionMinTravel,0
;   retractionMinTravel,3
;   retractWhileWiping,0
;   onlyWipeOutlines,1
;   avoidCrossingOutline,1
;   maxMovementDetourFactor,3
;   toolChangeRetractionDistance,12
;   toolChangeExtraRestartDistance,-0.5
;   toolChangeRetractionSpeed,600
;   externalThinWallType,0
;   internalThinWallType,2
;   thinWallAllowedOverlapPercentage,10
;   singleExtrusionMinLength,1
;   singleExtrusionMinPrintingWidthPercentage,50
;   singleExtrusionMaxPrintingWidthPercentage,200
;   singleExtrusionEndpointExtension,0.2
;   horizontalSizeCompensation,0
G90
M82
M106 S0
M140 S55
M190 S55
M104 S210 T0
M109 S210 T0
;;;;;;;;;;;;;;;;;;;;;;;;;;;;;;;;;;;;;; STARTING SCRIPT ;;;;;;;;;;;;;;;;;;;;;;;;;;;;;;;;;;;;;;;;;;
G28 ; home all axes
G1 X10 Y30 Z0.2 F3000 ; get ready to prime
G92 E0 ; reset extrusion distance
G1 X160 E15 F600 ; prime nozzle
G1 X180 F5000 ; quick wipe
;;;;;;;;;;;;;;;;;;;;;;;;;;;;;;;;;;;;;; STARTING SCRIPT END ;;;;;;;;;;;;;;;;;;;;;;;;;;;;;;;;;;;;;;;;;;
;;;;;;;;;;;;;;;;;;;;;;;;;;;;;;;;;;;;;; START PRINT ;;;;;;;;;;;;;;;;;;;;;;;;;;;;;;;;;;;;;;;;;;
; process Process1
; layer 1, Z = 0.311
T0
G92 E0.0000
G1 E-4.6000 F2400
; feature skirt
; tool H0.311 W0.600
G1 Z0.311 F1002
G1 X132.613 Y66.634 F4800
G1 E0.0000 F2400
G92 E0.0000
G1 X132.842 Y66.183 E0.0361 F432
G1 X132.867 Y66.140 E0.0396
G1 X133.026 Y65.898 E0.0603
G1 X133.055 Y65.858 E0.0638
G1 X133.366 Y65.481 E0.0988
G1 X133.400 Y65.444 E0.1023
G1 X133.610 Y65.240 E0.1232
G1 X133.647 Y65.207 E0.1268
G1 X134.039 Y64.903 E0.1622
G1 X134.082 Y64.873 E0.1660
G1 X134.349 Y64.711 E0.1883
G1 X134.396 Y64.687 E0.1920
G1 X134.893 Y64.461 E0.2310
G1 X134.945 Y64.441 E0.2350
G1 X135.259 Y64.344 E0.2585
G1 X135.314 Y64.330 E0.2624
G1 X135.876 Y64.229 E0.3032
G1 X135.935 Y64.223 E0.3075
G1 X136.285 Y64.207 E0.3325
G1 X136.292 Y64.207 E0.3330
G1 X136.292 Y61.492 E0.5268
G1 X136.353 Y61.263 E0.5437
G1 X137.061 Y60.037 E0.6448
G1 X137.229 Y59.869 E0.6617
G1 X142.176 Y57.014 E1.0696
G1 X142.234 Y56.986 E1.0742
G1 X142.586 Y56.845 E1.1012
G1 X142.647 Y56.825 E1.1058
G1 X143.539 Y56.609 E1.1713
G1 X143.621 Y56.597 E1.1772
G1 X144.108 Y56.571 E1.2121
G1 X144.191 Y56.574 E1.2180
G1 X144.837 Y56.658 E1.2645
G1 X144.890 Y56.668 E1.2684
G1 X145.199 Y56.747 E1.2912
G1 X145.251 Y56.764 E1.2950
G1 X145.778 Y56.969 E1.3354
G1 X145.829 Y56.992 E1.3394
G1 X146.120 Y57.150 E1.3631
G1 X146.168 Y57.179 E1.3671
G1 X146.642 Y57.518 E1.4087
G1 X146.686 Y57.554 E1.4128
G1 X146.932 Y57.782 E1.4367
G1 X146.972 Y57.823 E1.4408
G1 X147.356 Y58.282 E1.4835
G1 X147.391 Y58.329 E1.4877
G1 X147.528 Y58.543 E1.5058
G1 X150.157 Y57.025 E1.7226
G1 X150.038 Y56.794 E1.7412
G1 X150.014 Y56.741 E1.7454
G1 X149.811 Y56.178 E1.7881
G1 X149.795 Y56.124 E1.7921
G1 X149.721 Y55.800 E1.8158
G1 X149.712 Y55.744 E1.8199
G1 X149.657 Y55.167 E1.8613
G1 X149.655 Y55.111 E1.8653
G1 X149.664 Y54.783 E1.8887
G1 X149.668 Y54.728 E1.8926
G1 X149.753 Y54.170 E1.9330
G1 X149.765 Y54.116 E1.9369
G1 X149.851 Y53.807 E1.9598
G1 X149.869 Y53.755 E1.9637
G1 X150.089 Y53.225 E2.0047
G1 X150.113 Y53.175 E2.0087
G1 X150.276 Y52.888 E2.0322
G1 X150.307 Y52.842 E2.0362
G1 X150.651 Y52.382 E2.0772
G1 X150.686 Y52.340 E2.0811
G1 X150.910 Y52.106 E2.1042
G1 X150.950 Y52.069 E2.1081
G1 X151.344 Y51.747 E2.1444
G1 X151.373 Y51.725 E2.1470
G1 X151.549 Y51.604 E2.1623
G1 X151.580 Y51.584 E2.1649
G1 X156.455 Y48.770 E2.5668
G1 X156.683 Y48.709 E2.5837
G1 X158.098 Y48.708 E2.6847
G1 X158.327 Y48.769 E2.7016
G1 X160.680 Y50.125 E2.8955
G1 X160.865 Y49.834 E2.9202
G1 X160.900 Y49.787 E2.9244
G1 X161.269 Y49.346 E2.9654
G1 X161.309 Y49.304 E2.9695
G1 X161.558 Y49.074 E2.9938
G1 X161.603 Y49.037 E2.9979
G1 X162.048 Y48.721 E3.0369
G1 X162.092 Y48.694 E3.0405
G1 X162.357 Y48.548 E3.0621
G1 X162.403 Y48.526 E3.0658
G1 X162.846 Y48.344 E3.1000
G1 X162.891 Y48.328 E3.1034
G1 X163.160 Y48.250 E3.1234
G1 X163.206 Y48.239 E3.1268
G1 X163.670 Y48.156 E3.1604
G1 X163.717 Y48.150 E3.1638
G1 X163.993 Y48.129 E3.1836
G1 X164.040 Y48.128 E3.1870
G1 X164.570 Y48.145 E3.2248
G1 X164.638 Y48.152 E3.2296
G1 X165.031 Y48.225 E3.2582
G1 X165.097 Y48.242 E3.2631
G1 X165.729 Y48.461 E3.3108
G1 X165.769 Y48.477 E3.3139
G1 X165.999 Y48.582 E3.3320
G1 X166.037 Y48.601 E3.3350
G1 X173.838 Y53.106 E3.9782
G1 X173.872 Y53.127 E3.9811
G1 X174.065 Y53.263 E3.9979
G1 X174.097 Y53.288 E4.0008
G1 X174.582 Y53.697 E4.0461
G1 X174.629 Y53.743 E4.0508
G1 X174.885 Y54.034 E4.0784
G1 X174.925 Y54.086 E4.0831
G1 X175.218 Y54.538 E4.1216
G1 X175.243 Y54.581 E4.1252
G1 X175.375 Y54.844 E4.1461
G1 X175.395 Y54.889 E4.1497
G1 X175.565 Y55.347 E4.1846
G1 X175.579 Y55.393 E4.1880
G1 X175.649 Y55.670 E4.2084
G1 X175.659 Y55.718 E4.2119
G1 X175.727 Y56.205 E4.2470
G1 X175.732 Y56.257 E4.2507
G1 X175.739 Y56.566 E4.2728
G1 X175.737 Y56.619 E4.2766
G1 X175.685 Y57.167 E4.3159
G1 X175.676 Y57.225 E4.3200
G1 X175.601 Y57.559 E4.3445
G1 X175.584 Y57.614 E4.3487
G1 X175.387 Y58.152 E4.3896
G1 X175.364 Y58.205 E4.3937
G1 X175.207 Y58.506 E4.4179
G1 X175.203 Y58.512 E4.4184
G1 X177.555 Y59.869 E4.6123
G1 X177.723 Y60.037 E4.6292
G1 X178.431 Y61.264 E4.7303
G1 X178.492 Y61.493 E4.7472
G1 X178.491 Y67.120 E5.1490
G1 X178.489 Y67.156 E5.1516
G1 X178.473 Y67.366 E5.1666
G1 X178.469 Y67.401 E5.1692
G1 X178.388 Y67.904 E5.2055
G1 X178.376 Y67.958 E5.2095
G1 X178.284 Y68.273 E5.2329
G1 X178.266 Y68.325 E5.2368
G1 X178.038 Y68.854 E5.2780
G1 X178.013 Y68.904 E5.2819
G1 X177.847 Y69.187 E5.3054
G1 X177.816 Y69.233 E5.3093
G1 X177.468 Y69.688 E5.3502
G1 X177.432 Y69.730 E5.3542
G1 X177.206 Y69.961 E5.3773
G1 X177.165 Y69.998 E5.3812
G1 X176.724 Y70.349 E5.4215
G1 X176.679 Y70.381 E5.4254
G1 X176.404 Y70.550 E5.4485
G1 X176.355 Y70.576 E5.4524
G1 X175.826 Y70.819 E5.4940
G1 X175.771 Y70.840 E5.4981
G1 X175.444 Y70.941 E5.5226
G1 X175.388 Y70.955 E5.5267
G1 X174.799 Y71.056 E5.5694
G1 X174.743 Y71.063 E5.5734
G1 X174.491 Y71.074 E5.5914
G1 X174.491 Y74.111 E5.8082
G1 X174.743 Y74.122 E5.8263
G1 X174.800 Y74.128 E5.8303
G1 X175.388 Y74.230 E5.8729
G1 X175.444 Y74.244 E5.8771
G1 X175.771 Y74.345 E5.9015
G1 X175.826 Y74.366 E5.9057
G1 X176.355 Y74.608 E5.9473
G1 X176.404 Y74.634 E5.9512
G1 X176.679 Y74.804 E5.9743
G1 X176.724 Y74.835 E5.9782
G1 X177.165 Y75.187 E6.0185
G1 X177.206 Y75.224 E6.0224
G1 X177.432 Y75.455 E6.0455
G1 X177.468 Y75.497 E6.0495
G1 X177.816 Y75.952 E6.0903
G1 X177.847 Y75.998 E6.0943
G1 X178.013 Y76.281 E6.1177
G1 X178.038 Y76.330 E6.1217
G1 X178.266 Y76.860 E6.1628
G1 X178.284 Y76.912 E6.1668
G1 X178.376 Y77.227 E6.1902
G1 X178.388 Y77.281 E6.1942
G1 X178.469 Y77.783 E6.2305
G1 X178.473 Y77.819 E6.2331
G1 X178.489 Y78.029 E6.2481
G1 X178.491 Y78.064 E6.2506
G1 X178.492 Y83.692 E6.6524
G1 X178.431 Y83.921 E6.6693
G1 X177.723 Y85.147 E6.7705
G1 X177.555 Y85.315 E6.7874
G1 X175.203 Y86.672 E6.9813
G1 X175.207 Y86.679 E6.9818
G1 X175.364 Y86.980 E7.0060
G1 X175.387 Y87.032 E7.0101
G1 X175.584 Y87.570 E7.0510
G1 X175.601 Y87.626 E7.0552
G1 X175.676 Y87.960 E7.0796
G1 X175.685 Y88.017 E7.0838
G1 X175.737 Y88.562 E7.1229
G1 X175.738 Y88.614 E7.1265
G1 X175.732 Y88.916 E7.1481
G1 X175.728 Y88.967 E7.1518
G1 X175.664 Y89.441 E7.1859
G1 X175.655 Y89.488 E7.1893
G1 X175.588 Y89.761 E7.2094
G1 X175.574 Y89.807 E7.2128
G1 X175.415 Y90.249 E7.2464
G1 X175.397 Y90.292 E7.2497
G1 X175.276 Y90.541 E7.2694
G1 X175.254 Y90.582 E7.2728
G1 X175.006 Y90.981 E7.3063
G1 X174.979 Y91.020 E7.3098
G1 X174.807 Y91.242 E7.3298
G1 X174.775 Y91.278 E7.3332
G1 X174.419 Y91.648 E7.3699
G1 X174.373 Y91.690 E7.3743
G1 X174.081 Y91.919 E7.4008
G1 X174.029 Y91.954 E7.4053
G1 X166.048 Y96.577 E8.0638
G1 X166.012 Y96.596 E8.0667
G1 X165.796 Y96.697 E8.0838
G1 X165.758 Y96.712 E8.0866
G1 X165.159 Y96.928 E8.1321
G1 X165.095 Y96.945 E8.1369
G1 X164.711 Y97.022 E8.1648
G1 X164.646 Y97.030 E8.1695
G1 X164.108 Y97.058 E8.2079
G1 X164.060 Y97.057 E8.2114
G1 X163.772 Y97.041 E8.2320
G1 X163.723 Y97.035 E8.2355
G1 X163.242 Y96.954 E8.2703
G1 X163.194 Y96.943 E8.2738
G1 X162.916 Y96.864 E8.2945
G1 X162.869 Y96.849 E8.2980
G1 X162.412 Y96.663 E8.3332
G1 X162.365 Y96.641 E8.3370
G1 X162.095 Y96.493 E8.3590
G1 X162.050 Y96.465 E8.3627
G1 X161.603 Y96.147 E8.4019
G1 X161.558 Y96.111 E8.4060
G1 X161.309 Y95.880 E8.4302
G1 X161.269 Y95.838 E8.4344
G1 X160.900 Y95.398 E8.4754
G1 X160.865 Y95.350 E8.4796
G1 X160.679 Y95.058 E8.5043
G1 X158.329 Y96.415 E8.6981
G1 X158.100 Y96.476 E8.7150
G1 X156.684 Y96.476 E8.8161
G1 X156.455 Y96.415 E8.8331
G1 X151.580 Y93.600 E9.2350
G1 X151.549 Y93.581 E9.2376
G1 X151.373 Y93.459 E9.2528
G1 X151.344 Y93.437 E9.2554
G1 X150.950 Y93.115 E9.2918
G1 X150.910 Y93.078 E9.2957
G1 X150.686 Y92.845 E9.3188
G1 X150.651 Y92.803 E9.3227
G1 X150.307 Y92.343 E9.3637
G1 X150.277 Y92.296 E9.3677
G1 X150.113 Y92.010 E9.3912
G1 X150.089 Y91.959 E9.3952
G1 X149.869 Y91.430 E9.4362
G1 X149.851 Y91.378 E9.4401
G1 X149.765 Y91.068 E9.4630
G1 X149.753 Y91.015 E9.4669
G1 X149.668 Y90.457 E9.5072
G1 X149.664 Y90.401 E9.5112
G1 X149.655 Y90.073 E9.5346
G1 X149.657 Y90.018 E9.5386
G1 X149.712 Y89.441 E9.5800
G1 X149.721 Y89.385 E9.5840
G1 X149.795 Y89.060 E9.6078
G1 X149.811 Y89.006 E9.6118
G1 X150.014 Y88.444 E9.6545
G1 X150.038 Y88.390 E9.6587
G1 X150.157 Y88.159 E9.6772
G1 X147.528 Y86.641 E9.8940
G1 X147.391 Y86.855 E9.9122
G1 X147.356 Y86.903 E9.9163
G1 X146.972 Y87.362 E9.9591
G1 X146.932 Y87.403 E9.9632
G1 X146.686 Y87.630 E9.9871
G1 X146.642 Y87.666 E9.9912
G1 X146.168 Y88.005 E10.0328
G1 X146.120 Y88.035 E10.0368
G1 X145.829 Y88.192 E10.0605
G1 X145.778 Y88.216 E10.0645
G1 X145.250 Y88.421 E10.1048
G1 X145.199 Y88.437 E10.1087
G1 X144.890 Y88.516 E10.1315
G1 X144.837 Y88.526 E10.1354
G1 X144.271 Y88.600 E10.1761
G1 X144.216 Y88.604 E10.1801
G1 X143.887 Y88.606 E10.2035
G1 X143.832 Y88.603 E10.2075
G1 X143.261 Y88.536 E10.2485
G1 X143.207 Y88.526 E10.2524
G1 X142.891 Y88.449 E10.2756
G1 X142.838 Y88.432 E10.2796
G1 X142.362 Y88.252 E10.3159
G1 X142.329 Y88.238 E10.3185
G1 X142.137 Y88.146 E10.3337
G1 X142.105 Y88.130 E10.3363
G1 X137.229 Y85.315 E10.7382
G1 X137.061 Y85.148 E10.7552
G1 X136.353 Y83.921 E10.8563
G1 X136.292 Y83.692 E10.8732
G1 X136.292 Y80.978 E11.0670
G1 X136.285 Y80.978 E11.0675
G1 X135.935 Y80.962 E11.0925
G1 X135.876 Y80.955 E11.0968
G1 X135.313 Y80.854 E11.1376
G1 X135.259 Y80.841 E11.1415
G1 X134.945 Y80.743 E11.1650
G1 X134.893 Y80.723 E11.1690
G1 X134.399 Y80.499 E11.2078
G1 X134.353 Y80.475 E11.2115
G1 X134.091 Y80.318 E11.2333
G1 X134.048 Y80.289 E11.2370
